!!!OTL: 1742. Laurentin.
!!!ARE: Europa, Mitteleuropa, Deutschland
!!!SCT: E1742
!!!TXL: @@DE
!!!YEM: Copyright 1995, estate of Helmut Schaffrath.
**kern	**text
*ICvox	*
*M6/8	*
*k[f#]	*
*G:	*
!LO:TX:a:t=Etwas geschwind.	!
!LO:TX:a:t=Jn ganʒ Deutſchland bekannt, hoch- und niederdeutſch geſungen. Erk I, 1, 60.	!
{8d	Lau-
=1	=1
4g	-ren-
8g	-tia,
8g	lie-
8f#	-be
8g	Lau-
=2	=2
4a	-ren-
8d	-tia
4d}	mein,
{8d	wann
=3	=3
8a	wer-
8a	-den
8a	wir
8a	wie-
8g	-der
8a	bei-
=4	=4
4b/	-ſam-
8g	-men
4g}	ſein?
{8b	Am
=5	=5
4.dd;	Sonn-
4b}	-tag!
{8d	So
=6||	=6||
8g	wollt
8g	ich,
8g	daß
(8g	al-
8f#)	-le
8g	Tag
=7	=7
4a	Sonn-
8d	-tag
4d}	wär
{8d	und
=8	=8
4a	ich
8a	bei
8a	mei-
8a	-ner
8a	Lau-
=9	=9
4b/	-ren-
8g	-tia
4g}	wär!
{8b	Lau-
=10	=10
4.dd;	-ren-
4b}	-tia!
==	==
!!!AGN: Scherz -, Spiel - Lied, Zaehl - Geschichte
!!!ONB: ESAC (Essen Associative Code) Database: ERK3
!!!AMT: compound duple
!!!AIN: vox
!!!EED: Helmut Schaffrath
!!!EEV: 1.0
!!!GTL: Scherz-, Spiel- und Spottlieder.
!!!URL-scan: https://rosdok.uni-rostock.de/mcrviewer/recordIdentifier/rosdok_ppn745177999/iview2/phys_0533.iview2?x=-449.8344612962892&y=341.3534404023085&scale=0.47549036216460333&rotation=0&layout=singlePageLayout
!!!ENC: Anna Maria Matuszewska
!!!EEV: 2025/08/01
*-	*-
